img/svg/partners-image-2.svg

<svg width="166" height="45" viewBox="0 0 166 45" fill="none" xmlns="http://www.w3.org/2000/svg">
<path fill-rule="evenodd" clip-rule="evenodd" d="M117.186 28.5052H113.051L125.184 4.67749H125.759H129.319H129.949L142.082 28.5052H137.892L134.715 22.2333H120.391L117.186 28.5052ZM133.181 19.3028L127.512 8.18317L121.842 19.3028H133.181ZM98.2609 4.04755L101.082 0.788362H107.354L98.2609 4.04755ZM90.1814 28.56H111.489V25.8486H93.8514V17.6047H106.943V14.8111H93.8514V7.36153H111.38V4.70487H90.1814V28.56ZM61.2047 4.67749H64.5187H76.8981C81.0885 4.67749 84.5121 7.79974 84.5121 11.6067C84.5121 14.9207 81.9102 17.7143 78.4593 18.3716L85.8267 28.5326H81.4994L74.2415 18.5359H64.5187V28.5326H61.2047V18.5359V4.67749ZM77.0899 7.52586L77.309 7.55325L77.5281 7.58063L77.7472 7.63541L77.9663 7.69019L78.158 7.77235L78.3497 7.85451L78.5414 7.93668L78.7331 8.04623L78.9249 8.15578L79.0892 8.26533L79.2535 8.40228L79.4179 8.53922L79.5548 8.67616L79.6917 8.8131L79.8287 8.97743L79.9656 9.14176L80.0752 9.30609L80.1847 9.47042L80.2943 9.63474L80.3764 9.79907L80.4586 9.96341L80.5408 10.1277L80.5956 10.2921L80.6503 10.4564L80.7051 10.6207L80.7325 10.8124L80.7599 11.0042L80.7873 11.1959V11.3876V11.5793V11.771V11.9627L80.7599 12.1545L80.7325 12.3462L80.7051 12.5379L80.6503 12.7296L80.5956 12.8939L80.5408 13.0583L80.4586 13.2226L80.3764 13.3869L80.2943 13.5513L80.1847 13.7156L80.0752 13.8799L79.9656 14.0442L79.8287 14.2086L79.6917 14.3729L79.5548 14.5098L79.4179 14.6468L79.2535 14.7837L79.0892 14.9207L78.9249 15.0302L78.7331 15.1398L78.5414 15.2493L78.3497 15.3315L78.158 15.4137L77.9663 15.4958L77.7472 15.5506L77.5281 15.6054L77.309 15.6601L77.0899 15.6875L76.8708 15.7149H76.6243H64.7104V7.49847H76.6243H76.8981L77.0899 7.52586ZM40.8279 3.28069C34.0904 3.28069 28.6402 8.73094 28.6402 15.4684C28.6402 22.2059 34.0904 27.6562 40.8279 27.6562C47.5654 27.6562 53.0156 22.2059 53.0156 15.4684C53.0156 8.73094 47.538 3.28069 40.8279 3.28069ZM40.8279 0.54187C31.872 0.54187 24.5867 7.22459 24.5867 15.4684C24.5867 23.7123 31.8446 30.395 40.8279 30.395C49.8112 30.395 57.0691 23.7123 57.0691 15.4684C57.0417 7.22459 49.7838 0.54187 40.8279 0.54187ZM0.86853 28.56V4.70487H3.90862V25.9581H21.93V28.56H0.86853ZM143.807 28.56H165.198V25.8486H147.176V4.70487H143.835V28.56H143.807ZM67.0658 44.0617H65.2582L70.5989 34.7771H70.8454H72.4065H72.6804L78.021 44.0617H76.1861L74.7892 41.6242H68.49L67.0658 44.0617ZM74.0772 40.4738L71.5848 36.1465L69.0925 40.4738H74.0772ZM81.4446 34.7771H82.8414H88.0451C89.798 34.7771 91.2495 35.9822 91.2495 37.4611C91.2495 38.7484 90.154 39.8439 88.7024 40.0904L91.7973 44.0343H89.9897L86.9222 40.1452H83.17V44.0617H81.4172V40.1726V34.7771H81.4446ZM88.0999 35.9H88.1821L88.2642 35.9274L88.3464 35.9548L88.4286 35.9822L88.5107 36.0096L88.5929 36.037L88.6751 36.0643L88.7572 36.0917L88.8394 36.1465L88.9216 36.2013L88.9763 36.2561L89.0311 36.3108L89.0859 36.3656L89.1407 36.4204L89.1954 36.4752L89.2502 36.5299L89.305 36.5847L89.3598 36.6395L89.4145 36.6943L89.4419 36.7491L89.4693 36.8038L89.4967 36.8586L89.5241 36.9134L89.5515 36.9956L89.5789 37.0777V37.1599V37.242V37.3242V37.4064V37.4885V37.5707V37.6529V37.735V37.8172V37.8994L89.5515 37.9815L89.5241 38.0637L89.4967 38.1185L89.4693 38.1732L89.4419 38.228L89.4145 38.2828L89.3598 38.3376L89.305 38.3923L89.2502 38.4471L89.1954 38.5019L89.1407 38.5567L89.0859 38.6115L89.0311 38.6662L88.9763 38.721L88.9216 38.7758L88.8394 38.8306L88.7572 38.8853L88.6751 38.9127L88.5929 38.9401L88.5107 38.9675L88.4286 38.9949L88.3464 39.0223L88.2642 39.0497L88.1821 39.077H88.0999H88.0177H87.9082H83.2522V35.8726H87.9082H88.0177L88.0999 35.9ZM54.7411 34.7771H56.1379H61.3416C63.0945 34.7771 64.5461 35.9822 64.5461 37.4611C64.5461 38.3923 63.9709 39.214 63.1219 39.707C62.5467 40.0356 61.9442 40.1178 61.2869 40.1452C60.9582 40.1452 60.6022 40.1452 60.2461 40.1452H56.4939V44.0617H54.7411V40.1726V34.7771ZM61.3964 35.9H61.4786L61.5608 35.9274L61.6429 35.9548L61.7251 35.9822L61.8073 36.0096L61.8894 36.037L61.9716 36.0643L62.0537 36.0917L62.1359 36.1465L62.2181 36.2013L62.3002 36.2561L62.355 36.3108L62.4098 36.3656L62.4646 36.4204L62.5193 36.4752L62.5741 36.5299L62.6289 36.5847L62.6837 36.6395L62.7111 36.6943L62.7384 36.7491L62.7658 36.8038L62.7932 36.8586L62.8206 36.9134L62.848 36.9956L62.8754 37.0777L62.9028 37.1599V37.242V37.3242V37.4064V37.4885V37.5707V37.6529V37.735V37.8172L62.8754 37.8994L62.848 37.9815L62.8206 38.0637L62.7932 38.1185L62.7658 38.1732L62.7384 38.228L62.7111 38.2828L62.6837 38.3376L62.6289 38.3923L62.5741 38.4471L62.5193 38.5019L62.4646 38.5567L62.4098 38.6115L62.355 38.6662L62.3002 38.721L62.2181 38.7758L62.1359 38.8306L62.0537 38.8853L61.9716 38.9127L61.8894 38.9401L61.8073 38.9675L61.7251 38.9949L61.6429 39.0223L61.5608 39.0497L61.4786 39.077H61.3964H61.3143H61.2047H56.5487V35.8726H61.2047H61.3143L61.3964 35.9ZM101.767 41.0764L103.355 40.9668C103.437 41.4324 103.602 41.8159 103.876 42.1171C104.149 42.4184 104.588 42.6649 105.163 42.8292C105.738 43.0209 106.395 43.1031 107.135 43.1031C107.792 43.1031 108.367 43.0483 108.86 42.884C109.353 42.7471 109.737 42.5554 109.956 42.3089C110.202 42.0624 110.312 41.8159 110.312 41.5146C110.312 41.2133 110.202 40.9668 109.956 40.7477C109.737 40.5286 109.326 40.3369 108.805 40.2C108.449 40.0904 107.71 39.9535 106.505 39.7344C105.327 39.5427 104.505 39.3509 104.04 39.1592C103.437 38.9401 102.972 38.6388 102.67 38.3102C102.369 37.9541 102.232 37.5707 102.232 37.1599C102.232 36.6943 102.424 36.2561 102.78 35.8452C103.136 35.4344 103.684 35.1332 104.396 34.914C105.108 34.6949 105.902 34.6128 106.751 34.6128C107.71 34.6128 108.531 34.7223 109.271 34.9414C110.01 35.1605 110.558 35.4892 110.942 35.9274C111.325 36.3656 111.544 36.8586 111.572 37.379L109.983 37.4885C109.901 36.9134 109.6 36.4478 109.079 36.1465C108.586 35.8452 107.819 35.7083 106.833 35.7083C105.793 35.7083 105.053 35.8452 104.588 36.1191C104.122 36.393 103.876 36.7217 103.876 37.1051C103.876 37.4338 104.04 37.7076 104.368 37.9267C104.697 38.1459 105.546 38.365 106.943 38.5841C108.312 38.8032 109.271 39.0223 109.791 39.1866C110.531 39.4331 111.079 39.7618 111.462 40.1178C111.818 40.5012 111.982 40.9394 111.982 41.4324C111.982 41.9254 111.791 42.391 111.407 42.8292C111.024 43.2674 110.449 43.5961 109.709 43.8426C108.97 44.0891 108.148 44.1986 107.244 44.1986C106.094 44.1986 105.108 44.0891 104.314 43.8426C103.519 43.5961 102.917 43.2401 102.451 42.7471C102.04 42.2541 101.794 41.7063 101.767 41.0764ZM96.0425 37.5159H97.7679V44.0617H96.0425V37.5159ZM96.0425 34.7771H97.7679V36.5026H96.0425V34.7771ZM15.7403 13.0583H18.5613L22.7791 4.8692H19.1912L15.7403 13.0583Z" fill="black"/>
</svg>

<svg width="166" height="45" viewBox="0 0 166 45" fill="none" xmlns="http://www.w3.org/2000/svg"><path fill-rule="evenodd" clip-rule="evenodd" d="M117.186 28.505h-4.135l12.133-23.828h4.765l12.133 23.828h-4.19l-3.177-6.272h-14.324l-3.205 6.272zm15.995-9.202l-5.669-11.12-5.67 11.12h11.339zM98.261 4.048l2.821-3.26h6.272l-9.093 3.26zM90.18 28.56h21.308v-2.711H93.851v-8.244h13.092V14.81H93.851V7.36h17.529V4.706H90.181V28.56zM61.205 4.677h15.694c4.19 0 7.613 3.123 7.613 6.93 0 3.314-2.602 6.107-6.053 6.765l7.368 10.16h-4.328l-7.257-9.996h-9.723v9.997h-3.314V4.677zM77.09 7.526l.219.027.22.028.218.054.22.055.191.082.192.083.191.082.192.11.192.109.164.11.165.136.164.137.137.137.137.137.137.164.137.165.11.164.109.164.11.165.081.164.083.164.082.165.055.164.054.164.055.165.028.191.027.192.027.192v.767l-.027.192-.028.191-.027.192-.055.192-.054.164-.055.164-.082.165-.083.164-.082.164-.11.165-.109.164-.11.164-.136.165-.137.164-.137.137-.137.137-.165.137-.164.137-.164.11-.192.109-.192.11-.191.082-.192.082-.192.082-.219.055-.219.054-.219.055-.22.027-.218.028H64.71V7.498h12.188l.192.028zM40.828 3.28A12.18 12.18 0 0028.64 15.468a12.18 12.18 0 0012.188 12.188 12.18 12.18 0 0012.188-12.188c0-6.737-5.478-12.187-12.188-12.187zm0-2.74c-8.956 0-16.241 6.684-16.241 14.927 0 8.244 7.258 14.927 16.24 14.927 8.984 0 16.242-6.683 16.242-14.927C57.042 7.225 49.784.542 40.828.542zM.868 28.56V4.705h3.04v21.253H21.93v2.602H.869zm142.939 0h21.391v-2.711h-18.022V4.705h-3.341V28.56h-.028zM67.066 44.062h-1.808l5.34-9.285h2.082l5.341 9.285h-1.835l-1.397-2.438H68.49l-1.424 2.438zm7.011-3.588l-2.492-4.327-2.492 4.327h4.984zm7.368-5.697h6.6c1.753 0 3.204 1.205 3.204 2.684 0 1.287-1.095 2.383-2.547 2.63l3.095 3.943H89.99l-3.068-3.889H83.17v3.917h-1.753v-9.285h.028zM88.1 35.9h.082l.082.027.082.028.083.027.082.028.082.027.082.027.082.028.082.055.083.054.054.055.055.055.055.055.055.054.054.055.055.055.055.055.055.054.055.055.027.055.027.055.028.055.027.054.028.083.027.082v.821l-.027.082-.028.083-.027.054-.028.055-.027.055-.027.055-.055.055-.055.054-.055.055-.055.055-.054.055-.055.054-.055.055-.055.055-.054.055-.083.055-.082.054-.082.028-.082.027-.082.028-.082.027-.083.027-.082.028-.082.027h-4.93v-3.204h4.766l.082.027zm-33.36-1.123h6.601c1.752 0 3.204 1.205 3.204 2.684 0 .931-.575 1.753-1.424 2.246-.575.329-1.178.41-1.835.438h-4.793v3.917H54.74v-9.285zm6.655 1.123h.083l.082.027.082.028.082.027.082.028.082.027.083.027.082.028.082.055.082.054.082.055.055.055.055.055.055.054.054.055.055.055.055.055.055.054.027.055.027.055.028.055.027.055.028.054.027.083.027.082.028.082v.657l-.028.082-.027.082-.027.083-.028.054-.027.055-.028.055-.027.055-.027.055-.055.054-.055.055-.055.055-.054.055-.055.054-.055.055-.055.055-.082.055-.082.055-.082.054-.082.028-.083.027-.082.028-.082.027-.082.027-.082.028-.082.027h-4.929v-3.204h4.766l.081.027zm40.371 5.176l1.588-.11c.082.466.247.85.521 1.151.273.301.712.548 1.287.712.575.192 1.232.274 1.972.274.657 0 1.232-.055 1.725-.219.493-.137.877-.329 1.096-.575.246-.247.356-.493.356-.794a.972.972 0 00-.356-.767c-.219-.22-.63-.411-1.151-.548-.356-.11-1.095-.247-2.3-.466-1.178-.191-2-.383-2.465-.575-.603-.219-1.068-.52-1.37-.849a1.734 1.734 0 01-.438-1.15c0-.466.192-.904.548-1.315.356-.41.904-.712 1.616-.931.712-.22 1.506-.301 2.355-.301.959 0 1.78.11 2.52.328.739.22 1.287.548 1.671.986.383.439.602.932.63 1.452l-1.589.11a1.785 1.785 0 00-.904-1.342c-.493-.302-1.26-.439-2.246-.439-1.04 0-1.78.137-2.245.411-.466.274-.712.603-.712.986 0 .329.164.603.492.822.329.219 1.178.438 2.575.657 1.369.22 2.328.438 2.848.603.74.246 1.288.575 1.671.93.356.384.52.822.52 1.315s-.191.959-.575 1.397c-.383.438-.958.767-1.698 1.014-.739.246-1.561.356-2.465.356-1.15 0-2.136-.11-2.93-.356-.795-.247-1.397-.603-1.863-1.096-.411-.493-.657-1.04-.684-1.67zm-5.724-3.56h1.725v6.546h-1.725v-6.546zm0-2.739h1.725v1.726h-1.725v-1.726zM15.74 13.058h2.821L22.78 4.87h-3.588l-3.45 8.19z" fill="#000"/></svg>
